X:562
T:Reel 562
M:4/4
K:Dmaj
L:1/8
D2FD B,DA,G|FDAF GECE|FDA,D B,DA,G|FDEC A,DD2:|F>D (3DDD AFGE|FDED B,DA,G|FAE (3A,A,A, E>A,A,G|GABA GFEDE2:|FA AcBA GF|FAAG F>E (3ECA, |FAAc BAGF|EDCD EDD2|FAAB GFGA|FAAd Bcd2| (3FGA Bc dBBG|EFGE FDD2|
